packages/kaspersky-hexa-ui-icons/src/iconsSVGs/64x42/FlagSb.svg

<svg width="64" height="42" viewBox="0 0 64 42" fill="none" xmlns="http://www.w3.org/2000/svg">
<g clip-path="url(#clip0_37941_2352)">
<rect width="64" height="42" rx="5" fill="white"/>
<path fill-rule="evenodd" clip-rule="evenodd" d="M0 0.000101686L67.9606 -1.06177L0 42.0001V0.000101686Z" fill="url(#paint0_linear_37941_2352)"/>
<path fill-rule="evenodd" clip-rule="evenodd" d="M61.454 0.24242L2.654 42.2424H61.454L72.0889 -0.242432L61.454 0.24242Z" fill="#2C7442"/>
<rect x="-5.82471" y="41.382" width="70.4493" height="50.0491" transform="rotate(-34 -5.82471 41.382)" fill="#FFD646"/>
<path fill-rule="evenodd" clip-rule="evenodd" d="M4.24264 9.13161L4.63554 6.84083L2.97119 5.21849L5.27127 4.88427L6.29989 2.80005L7.32851 4.88427L9.62859 5.21849L7.96424 6.84083L8.35714 9.13161L6.29989 8.05005L4.24264 9.13161ZM20.3001 8.05005L18.2428 9.13161L18.6357 6.84083L16.9714 5.21849L19.2714 4.88427L20.3001 2.80005L21.3287 4.88427L23.6288 5.21849L21.9644 6.84083L22.3573 9.13161L20.3001 8.05005ZM18.2428 17.5316L20.3001 16.45L22.3573 17.5316L21.9644 15.2408L23.6288 13.6185L21.3287 13.2843L20.3001 11.2L19.2714 13.2843L16.9714 13.6185L18.6357 15.2408L18.2428 17.5316ZM4.24264 17.5316L4.63554 15.2408L2.97119 13.6185L5.27127 13.2843L6.29989 11.2L7.32851 13.2843L9.62859 13.6185L7.96424 15.2408L8.35714 17.5316L6.29989 16.45L4.24264 17.5316ZM11.6354 11.0408L11.2425 13.3316L13.2997 12.25L15.357 13.3316L14.9641 11.0408L16.6284 9.41849L14.3283 9.08427L13.2997 7.00005L12.2711 9.08427L9.97102 9.41849L11.6354 11.0408Z" fill="white"/>
</g>
<defs>
<linearGradient id="paint0_linear_37941_2352" x1="0" y1="2.44814e-07" x2="0" y2="42" gradientUnits="userSpaceOnUse">
<stop stop-color="#0660D4"/>
<stop offset="1" stop-color="#0051BB"/>
</linearGradient>
<clipPath id="clip0_37941_2352">
<rect width="64" height="42" rx="5" fill="white"/>
</clipPath>
</defs>
</svg>

<svg xmlns="http://www.w3.org/2000/svg" width="64" height="42" fill="none" viewBox="0 0 64 42"><g clip-path="url(#a)"><rect width="64" height="42" fill="#fff" rx="5"/><path fill="url(#b)" fill-rule="evenodd" d="m0 .0001 67.9606-1.0619L0 42.0001z" clip-rule="evenodd"/><path fill="#2c7442" fill-rule="evenodd" d="m61.454.2424-58.8 42h58.8L72.0889-.2424z" clip-rule="evenodd"/><path fill="#ffd646" d="M-5.8247 41.382 52.5804 1.9872l27.9871 41.4926-58.4051 39.3948z"/><path fill="#fff" fill-rule="evenodd" d="m4.2426 9.1316.393-2.2908-1.6644-1.6223 2.3-.3342L6.3 2.8l1.0286 2.0842 2.3.3342-1.6643 1.6223.393 2.2908L6.3 8.05zm16.0575-1.0815-2.0573 1.0815.3929-2.2908-1.6643-1.6223 2.3-.3342L20.3001 2.8l1.0286 2.0842 2.3001.3342-1.6644 1.6223.3929 2.2908zm-2.0573 9.4815 2.0573-1.0816 2.0572 1.0816-.3929-2.2908 1.6644-1.6223-2.3001-.3342L20.3001 11.2l-1.0287 2.0843-2.3.3342 1.6643 1.6223zm-14.0002 0 .393-2.2908-1.6644-1.6223 2.3-.3342L6.3 11.2l1.0286 2.0843 2.3.3342-1.6643 1.6223.393 2.2908L6.2998 16.45zm7.3928-6.4908-.3929 2.2908 2.0572-1.0816 2.0573 1.0816-.3929-2.2908 1.6643-1.6223-2.3001-.3342L13.2997 7l-1.0286 2.0843-2.3.3342z" clip-rule="evenodd"/></g><defs><linearGradient id="b" x1="0" x2="0" y1="0" y2="42" gradientUnits="userSpaceOnUse"><stop stop-color="#0660d4"/><stop offset="1" stop-color="#0051bb"/></linearGradient><clipPath id="a"><rect width="64" height="42" fill="#fff" rx="5"/></clipPath></defs></svg>
